X:15033
%10234
T:Maple Sugar
R:Reel
C:Ward Allen
S:Nancy Roach book
Z:entered by alf.warnock@nrc.ca
M:2/4
L:1/8
K:Cmaj
CEF|:"C"G2G>A|GFED|E2E>F|ECFE|
"G7"EDDE|F2E>D|"C"FEED|ECEF|
G2G>A|GFED|E2E>F|ECFE|
"G7"EDDE|F2E>D|"C Abine"C2C>D|1 C2E,F,|G,2G,>A,|
G,E,G,C
